dist/assets/freshwork-DW3-zLIp.svg

<svg width="38" height="38" viewBox="0 0 38 38" fill="none" xmlns="http://www.w3.org/2000/svg">
<g clip-path="url(#clip0_214_3823)">
<g clip-path="url(#clip1_214_3823)">
<g clip-path="url(#clip2_214_3823)">
<mask id="mask0_214_3823" style="mask-type:luminance" maskUnits="userSpaceOnUse" x="0" y="1" width="37" height="37">
<path d="M36.9083 1.63184H0.911621V37.6285H36.9083V1.63184Z" fill="white"/>
</mask>
<g mask="url(#mask0_214_3823)">
<path d="M1.13696 22.2966C1.66301 26.1292 3.4666 29.5861 6.17199 32.3667L12.2591 26.2796C12.2591 19.8167 15.6409 13.9551 21.2019 10.6484L1.13696 22.2966Z" fill="#9B65C3"/>
<path d="M12.3343 26.2036C9.17797 26.2036 6.09683 25.377 3.39145 23.7989C2.63995 23.348 1.88846 22.8219 1.13696 22.2959C1.66301 26.1286 3.4666 29.5854 6.17199 32.3659L12.3343 26.2036Z" fill="#9B65C3"/>
<path d="M12.3344 26.2046L6.17212 32.3668C8.95266 35.1474 12.4096 36.8759 16.167 37.4019L27.8152 17.2617C24.6589 22.7477 18.7221 26.2046 12.3344 26.2046Z" fill="#BE63C5"/>
<path d="M14.7392 35.2222C13.161 32.4416 12.3344 29.4357 12.3344 26.2793L6.17212 32.3664C8.95266 35.147 12.4096 36.8754 16.167 37.4015C15.7161 36.6499 15.19 35.9736 14.7392 35.2222Z" fill="#BF63C6"/>
<path d="M35.2545 2.6084L21.2767 10.5743C15.7156 13.7305 8.95214 13.7305 3.31592 10.5743C1.73777 13.3548 0.911133 16.5111 0.911133 19.6674C0.911133 20.494 0.986282 21.4709 1.13658 22.2976C1.88808 22.8236 2.63958 23.3497 3.39107 23.8006C6.1716 25.3787 9.17759 26.2054 12.3339 26.2054L35.5551 2.98414C35.4048 2.90899 35.3297 2.75869 35.2545 2.6084Z" fill="#3278B1"/>
<path d="M3.31631 23.7976C6.09684 25.3758 9.10283 26.2024 12.2591 26.2024C12.2591 19.7395 15.6409 13.8779 21.2019 10.5713L1.13696 22.2194C1.88846 22.8207 2.56481 23.3467 3.31631 23.7976Z" fill="#3278B2"/>
<path d="M3.31592 10.5713C1.73777 13.3518 0.911133 16.5081 0.911133 19.6644C0.911133 20.4911 0.986282 21.468 1.13658 22.2946L21.2767 10.5713C15.7908 13.8779 8.95214 13.8779 3.31592 10.5713Z" fill="#45A4EC"/>
<path d="M35.5558 2.98258C35.2552 2.68198 35.0298 2.45653 34.7292 2.23108C34.0528 1.85533 33.2262 1.62988 32.4747 1.62988H18.8726C12.4097 1.62988 6.47294 5.08676 3.31665 10.5727C8.87772 13.7289 15.6412 13.7289 21.2774 10.5727C15.7163 13.7289 12.3346 19.7409 12.3346 26.2039C18.7975 26.2039 24.6591 22.822 27.9658 17.261L35.9316 3.28318C35.7813 3.20803 35.631 3.13287 35.5558 2.98258Z" fill="#19BB7D"/>
<path d="M21.2774 10.572L35.2552 2.60617C35.0298 2.53102 34.9547 2.30558 34.7292 2.15527L3.31665 10.572C8.95287 13.8786 15.7915 13.8786 21.2774 10.572Z" fill="#08C7FB"/>
<path d="M32.3996 1.62988H18.8726C12.4097 1.62988 6.47294 5.08676 3.31665 10.5727L34.7292 2.15593C33.9777 1.85533 33.2262 1.62988 32.3996 1.62988Z" fill="#59F2F6"/>
<path d="M27.9648 17.2598L35.9308 3.28196C35.8556 3.20681 35.7053 3.0565 35.6302 2.83105L12.4089 26.1274C12.4089 29.2838 13.2355 32.3649 14.8137 35.0703C15.2646 35.8218 15.7907 36.5732 16.3166 37.3248C17.1434 37.3999 17.97 37.5501 18.8718 37.5501C22.0281 37.5501 25.1092 36.7235 27.8146 35.1455C24.6583 29.5843 24.6583 22.7457 27.9648 17.2598Z" fill="#DA3757"/>
<path d="M12.3347 26.2046C12.3347 29.3609 13.1614 32.442 14.7395 35.1474C15.1905 35.8988 15.7164 36.6504 16.2425 37.4019L27.8907 17.2617C24.6593 22.7477 18.7225 26.2046 12.3347 26.2046Z" fill="#D33C4E"/>
<path d="M27.9648 17.2617L16.3167 37.4019C17.1433 37.477 17.97 37.6273 18.9469 37.6273C22.1032 37.6273 25.1843 36.8007 27.8897 35.2225C24.6583 29.5863 24.6583 22.7477 27.9648 17.2617Z" fill="#EE5A24"/>
<path d="M36.3075 3.88594C36.0069 3.35989 35.7063 2.90899 35.2553 2.6084L21.2776 10.5743C15.7164 13.7305 12.3347 19.7425 12.3347 26.2054C18.7976 26.2054 24.6593 22.8236 27.9659 17.2626C24.8095 22.8236 24.8095 29.5871 27.9659 35.2234C33.4518 32.067 36.9087 26.1302 36.9087 19.8177V6.14042C36.9087 5.31378 36.6832 4.56229 36.3075 3.88594Z" fill="#8BDF55"/>
<path d="M35.2553 2.6084L21.2776 10.5743C15.7164 13.7305 12.3347 19.7425 12.3347 26.2054L35.556 2.98414C35.4056 2.90899 35.3305 2.68354 35.2553 2.6084Z" fill="#25C16F"/>
<path d="M12.3347 26.2026C18.7976 26.2026 24.6593 22.8209 27.9659 17.2598L35.9317 3.28196C35.8566 3.20681 35.7063 3.0565 35.6311 2.83105L12.3347 26.2026Z" fill="#8BDF55"/>
<path d="M35.9309 3.2832L27.9651 17.261C24.8088 22.8221 24.8088 29.5855 27.9651 35.2217L36.3819 3.88439C36.1564 3.65894 36.0812 3.50865 35.9309 3.2832Z" fill="#FFBB00"/>
<path d="M27.9651 35.2211C33.5261 32.0649 36.9079 26.128 36.9079 19.6652V6.13823C36.9079 5.31159 36.6824 4.56008 36.3067 3.80859L27.9651 35.2211Z" fill="#FFA800"/>
</g>
</g>
</g>
</g>
<defs>
<clipPath id="clip0_214_3823">
<rect width="37.0875" height="37.0875" fill="white" transform="translate(0.365723 0.865234)"/>
</clipPath>
<clipPath id="clip1_214_3823">
<rect width="37.0875" height="37.0875" fill="white" transform="translate(0.365967 0.865234)"/>
</clipPath>
<clipPath id="clip2_214_3823">
<rect width="37.0875" height="37.0875" fill="white" transform="translate(0.365967 0.865234)"/>
</clipPath>
</defs>
</svg>

<svg xmlns="http://www.w3.org/2000/svg" width="38" height="38"><g clip-path="url(#a)"><g clip-path="url(#b)"><g clip-path="url(#c)"><mask id="d" width="37" height="37" x="0" y="1" maskUnits="userSpaceOnUse" style="mask-type:luminance"><path d="M36.908 1.632H.912v35.997h35.996z"/></mask><g mask="url(#d)"><path d="M1.137 22.297c.526 3.832 2.33 7.29 5.035 10.07l6.087-6.087c0-6.463 3.382-12.325 8.943-15.632z"/><path d="M12.334 26.204c-3.156 0-6.237-.827-8.943-2.405-.751-.451-1.503-.977-2.254-1.503.526 3.833 2.33 7.29 5.035 10.07zm0 .001-6.162 6.162c2.78 2.78 6.238 4.509 9.995 5.035l11.648-20.14c-3.156 5.486-9.093 8.943-15.48 8.943"/><path d="M14.74 35.222c-1.579-2.78-2.406-5.786-2.406-8.943l-6.162 6.087c2.78 2.781 6.238 4.51 9.995 5.035-.45-.751-.977-1.427-1.428-2.179M35.255 2.608l-13.978 7.966c-5.561 3.156-12.325 3.156-17.961 0A18.5 18.5 0 0 0 .91 19.667c0 .827.075 1.804.226 2.63.751.527 1.503 1.053 2.254 1.504 2.78 1.578 5.787 2.404 8.943 2.404l23.221-23.22c-.15-.076-.225-.226-.3-.377"/><path d="M3.316 23.798c2.78 1.578 5.787 2.404 8.943 2.404 0-6.463 3.382-12.324 8.943-15.63L1.137 22.218c.751.602 1.428 1.128 2.18 1.579"/><path d="M3.316 10.571A18.5 18.5 0 0 0 .91 19.664c0 .827.075 1.804.226 2.63l20.14-11.723c-5.486 3.307-12.325 3.307-17.961 0"/><path d="M35.556 2.983c-.3-.301-.526-.526-.827-.752a4.8 4.8 0 0 0-2.254-.601H18.873c-6.463 0-12.4 3.457-15.556 8.943 5.56 3.156 12.324 3.156 17.96 0-5.56 3.156-8.942 9.168-8.942 15.63 6.462 0 12.324-3.381 15.63-8.942l7.967-13.978c-.15-.075-.301-.15-.376-.3"/><path d="m21.277 10.572 13.978-7.966c-.225-.075-.3-.3-.526-.45L3.317 10.571c5.636 3.307 12.474 3.307 17.96 0"/><path d="M32.4 1.63H18.873c-6.463 0-12.4 3.457-15.556 8.943l31.412-8.417c-.751-.3-1.503-.526-2.33-.526m-4.434 15.63L35.93 3.282a1.16 1.16 0 0 1-.3-.451L12.408 26.127c0 3.157.826 6.238 2.405 8.943.45.752.977 1.503 1.503 2.255.826.075 1.653.225 2.555.225a17.73 17.73 0 0 0 8.943-2.404c-3.157-5.562-3.157-12.4.15-17.886"/><path d="M12.335 26.205c0 3.156.826 6.237 2.404 8.942.451.752.977 1.503 1.503 2.255l11.649-20.14c-3.232 5.486-9.168 8.943-15.556 8.943m15.63-8.943-11.648 20.14c.826.075 1.653.225 2.63.225 3.156 0 6.237-.826 8.943-2.405-3.232-5.636-3.232-12.474.075-17.96"/><path d="M36.308 3.886c-.301-.526-.602-.977-1.053-1.278l-13.977 7.966c-5.562 3.156-8.943 9.169-8.943 15.631 6.463 0 12.324-3.381 15.63-8.942-3.155 5.56-3.155 12.324 0 17.96 5.487-3.156 8.944-9.093 8.944-15.405V6.14c0-.826-.226-1.578-.602-2.254"/><path d="m35.255 2.608-13.977 7.966c-5.562 3.156-8.943 9.169-8.943 15.631l23.221-23.22c-.15-.076-.225-.301-.3-.377"/><path d="M12.335 26.203c6.463 0 12.324-3.382 15.63-8.943l7.967-13.978c-.075-.075-.226-.225-.3-.451z"/><path d="m35.93 3.283-7.965 13.978c-3.156 5.561-3.156 12.325 0 17.96l8.417-31.337c-.226-.225-.3-.375-.451-.6"/><path d="M27.965 35.221c5.561-3.156 8.943-9.093 8.943-15.556V6.138c0-.826-.226-1.578-.601-2.33z"/></g></g></g></g><defs><clipPath id="a"><path d="M.366.865h37.087v37.087H.366z"/></clipPath><clipPath id="b"><path d="M.366.865h37.087v37.087H.366z"/></clipPath><clipPath id="c"><path d="M.366.865h37.087v37.087H.366z"/></clipPath></defs></svg>
